X: 29083
T: Neilly O'Boyle's
R: reel
M: 4/4
K: Amixolydian
A2 cA dBcB|ABcd ecac|A2 cA dBcA|BABc d2 cB|
A2 cA dBcB|ABcd ecac|A2 cA dBcA|BABc d3 B|
cdef ecac|ecac efed|cdef ecac|BABc d3 B|
cdef ecac|ecac efed|cdef ecac|BABc d2 cB|

